X:1
T:Hear My Call
T:Hear My Call
T:Charles J. Taylor
T:Frances Jane (Fanny) Crosby, 1887
T:Public Domain Courtesy of the Cyber Hymnal™
C:Charles J. Taylor
Z:Public Domain
Z:Courtesy of the Cyber Hymnal™
%%score ( 1 2 ) ( 3 4 )
L:1/8
Q:1/4=105
M:3/4
K:Eb
V:1 treble 
V:2 treble 
V:3 bass 
V:4 bass 
V:1
 [EB]>"^Animated"[Ec] | [EB]2 [B,E]2 [B,D]>[B,F] | [B,E]4 [EG]>[EG] | [EA]2 [Ec]2 [Ed]>[Ec] | %4
w: 1.~Light of|all who come to|Thee, Let me|now Thy glo- ry|
w: 2.~Hope of|all who trust in|Thee, Thou Whose|blood was shed for|
w: 3.~In Thy|strength, and not my|own, This I|ask be- fore Thy|
w: 4.~When on|earth I close mine|eyes, When to|life Thou bidst me|
 [DB]4 [EG]>[FA] | [GB]2 [EG]2 [Ec]>[EB] | [Ge]4 [EB]>[EG] | [DF]2 [Dc]2 [DA]>[B,D] | [B,E]4 || %9
w: see, Shin- ing|down with beams di-|vine, Mak- ing|glad this heart of|mine.|
w: me, Thro’ its|heal- ing power di-|vine Keep from|sin this heart of|mine.|
w: throne, Bless- èd|Lord, my faith in-|crease, Keep my|soul in per- fect|peace.|
w: rise, To Thy-|self, Thou Friend di-|vine, Take, oh,|take this heart of|mine.|
"^Refrain" [EG]>[FA] | [GB]2- [GB]>[GB] [^Fd]>[Fc] | [GB]4 [GB]>[EG] | [FA]2- [FA][FA] [Ac]>[GB] | %13
w: ||||
w: Hear my|call, * oh, hear my|call, Thou my|life, * my all in|
w: ||||
w: ||||
 [EG]4 [EG]>[FA] | [GB]2- [GB]>[Ac] [GB]>[EG] | [Ge]4 E>[EF] | [EG]2- [EG]>[EB] [DF]>[B,G] | %17
w: ||||
w: all; By Thy|hand * up- hold me|still, With Thy|love * my spir- it|
w: ||||
w: ||||
 [B,E]4 |] %18
w: |
w: fill.|
w: |
w: |
V:2
 x2 | x6 | x6 | x6 | x6 | x6 | x6 | x6 | x4 || x2 | x6 | x6 | x6 | x6 | x6 | x4 E3/2 x/ | x6 | %17
 x4 |] %18
V:3
 [E,G,]>[E,A,] | [E,G,]2 [E,G,]2 [B,,F,]>[B,,A,] | [E,G,]4 [E,B,]>[_D,B,] | %3
w: ~ ~|~ ~ ~ ~|~ ~ ~|
 [C,A,]2 [A,,A,]2 [F,,F,=A,]>[F,,F,A,] | z3 [G,B,]>[F,B,] x | [E,B,]2 [E,B,]2 [E,A,]>[E,G,] | %6
w: ~ ~ ~ ~|~ ~|~ ~ ~ ~|
 [E,B,]4 [E,G,]>[E,B,] | [B,,B,]2 [B,,A,]2 [B,,F,]>[B,,A,] | [E,G,]4 || z2 | %10
w: ~ ~ ~|~ ~ ~ ~|~||
 [E,E]>[E,E] [E,E]>[E,B,] [E,=A,]>[E,A,] | [E,B,]4 z2 | [B,,D]>[B,,D] [B,,D]2 [B,,B,]2 | %13
w: ~ ~ Hear my call, oh,|hear|my call, Thou my|
 [E,B,]>[E,B,] [E,B,]2 z2 | [E,E]>[E,E] [E,E]2 [E,B,]2 | [E,B,]>[E,B,] [E,B,]2 [E,G,]>[C,=A,] | %16
w: life, my all|in all; By Thy|hand up- hold me still,|
 [B,,B,]>[B,,B,] [B,,B,]>[B,,G,] [B,,A,]>[B,,B,] | [E,G,]4 |] %18
w: With Thy love my long- ing|spir-|
V:4
 x2 | x6 | x6 | x6 | (B,4 A,) x | x6 | x6 | x6 | x4 || x2 | x6 | x6 | x6 | x6 | x6 | x6 | x6 | %17
 x4 |] %18

